flaticon/emoticons/nerd-1.svg

<svg xmlns="http://www.w3.org/2000/svg" width="32" height="32" viewBox="0 0 24 24">
    <path d="M14.898438 16.167969C14.699219 16.015625 14.414062 16.054688 14.265625 16.257812 14.113281 16.457031 14.15625 16.738281 14.355469 16.890625L14.535156 17.027344C14.136719 17.488281 13.25 18.359375 12.085938 18.535156 11.339844 18.648438 10.589844 18.445312 9.84375 17.941406L9.917969 17.886719C10.117188 17.738281 10.15625 17.453125 10.007812 17.253906 9.859375 17.050781 9.574219 17.011719 9.375 17.164062L8.378906 17.910156C8.175781 18.058594 8.136719 18.34375 8.289062 18.542969 8.375 18.660156 8.511719 18.722656 8.648438 18.722656 8.746094 18.722656 8.839844 18.695312 8.921875 18.632812L9.085938 18.511719C9.925781 19.148438 10.792969 19.472656 11.675781 19.472656 11.855469 19.472656 12.039062 19.457031 12.222656 19.429688 13.710938 19.207031 14.796875 18.121094 15.261719 17.570312L15.351562 17.636719C15.433594 17.699219 15.527344 17.726562 15.621094 17.726562 15.761719 17.726562 15.894531 17.664062 15.984375 17.546875 16.136719 17.347656 16.09375 17.0625 15.894531 16.914062zM15.886719 7.320312C14.398438 7.320312 13.132812 8.292969 12.695312 9.636719 12.507812 9.550781 12.296875 9.5 12.070312 9.5 11.84375 9.5 11.636719 9.550781 11.449219 9.636719 11.007812 8.292969 9.742188 7.320312 8.253906 7.320312 6.402344 7.320312 4.894531 8.824219 4.894531 10.679688 4.894531 12.53125 6.402344 14.039062 8.253906 14.039062 10.109375 14.039062 11.613281 12.53125 11.613281 10.679688 11.613281 10.550781 11.808594 10.40625 12.070312 10.40625 12.332031 10.40625 12.527344 10.550781 12.527344 10.679688 12.527344 12.53125 14.035156 14.039062 15.886719 14.039062 17.738281 14.039062 19.246094 12.53125 19.246094 10.679688 19.246094 8.824219 17.738281 7.320312 15.886719 7.320312zM8.253906 13.132812C6.902344 13.132812 5.800781 12.03125 5.800781 10.679688 5.800781 9.324219 6.902344 8.222656 8.253906 8.222656 9.609375 8.222656 10.710938 9.324219 10.710938 10.679688 10.710938 12.03125 9.609375 13.132812 8.253906 13.132812zM15.886719 13.132812C14.53125 13.132812 13.433594 12.03125 13.433594 10.679688 13.433594 9.324219 14.53125 8.222656 15.886719 8.222656 17.238281 8.222656 18.339844 9.324219 18.339844 10.679688 18.339844 12.03125 17.238281 13.132812 15.886719 13.132812zM15.886719 13.132812"/>
    <path d="M8.792969 9.09375C8.613281 8.917969 8.328125 8.917969 8.152344 9.09375L6.699219 10.546875C6.523438 10.726562 6.523438 11.011719 6.699219 11.1875 6.785156 11.277344 6.902344 11.320312 7.019531 11.320312 7.136719 11.320312 7.25 11.277344 7.339844 11.1875L8.792969 9.734375C8.96875 9.558594 8.96875 9.273438 8.792969 9.09375zM9.414062 10.359375L7.960938 11.8125C7.785156 11.988281 7.785156 12.273438 7.960938 12.453125 8.050781 12.539062 8.167969 12.585938 8.28125 12.585938 8.398438 12.585938 8.515625 12.539062 8.601562 12.453125L10.054688 11C10.234375 10.820312 10.234375 10.535156 10.054688 10.359375 9.878906 10.179688 9.59375 10.179688 9.414062 10.359375zM16.570312 8.90625C16.390625 8.726562 16.105469 8.726562 15.929688 8.90625L14.476562 10.359375C14.296875 10.535156 14.296875 10.820312 14.476562 11 14.5625 11.085938 14.679688 11.132812 14.796875 11.132812 14.910156 11.132812 15.027344 11.085938 15.117188 11L16.570312 9.546875C16.746094 9.367188 16.746094 9.082031 16.570312 8.90625zM16.753906 10.359375L15.300781 11.8125C15.125 11.988281 15.125 12.273438 15.300781 12.453125 15.390625 12.539062 15.507812 12.585938 15.621094 12.585938 15.738281 12.585938 15.855469 12.539062 15.941406 12.453125L17.394531 11C17.574219 10.820312 17.574219 10.535156 17.394531 10.359375 17.21875 10.179688 16.933594 10.179688 16.753906 10.359375zM6.929688 15.347656C7.046875 15.347656 7.164062 15.296875 7.25 15.210938 7.332031 15.128906 7.382812 15.011719 7.382812 14.894531 7.382812 14.777344 7.332031 14.65625 7.25 14.570312 7.078125 14.40625 6.777344 14.398438 6.605469 14.570312 6.519531 14.65625 6.476562 14.777344 6.476562 14.894531 6.476562 15.011719 6.519531 15.128906 6.605469 15.210938 6.6875 15.296875 6.804688 15.347656 6.929688 15.347656zM6.703125 16.492188C6.617188 16.574219 6.566406 16.691406 6.566406 16.8125 6.566406 16.929688 6.617188 17.050781 6.699219 17.128906 6.777344 17.214844 6.894531 17.261719 7.019531 17.261719 7.140625 17.261719 7.253906 17.214844 7.339844 17.128906 7.421875 17.046875 7.472656 16.929688 7.472656 16.8125 7.472656 16.691406 7.421875 16.574219 7.339844 16.492188 7.167969 16.320312 6.859375 16.324219 6.703125 16.492188zM5.113281 16.886719C5.03125 16.972656 4.980469 17.089844 4.980469 17.207031 4.980469 17.324219 5.03125 17.441406 5.113281 17.527344 5.199219 17.609375 5.316406 17.660156 5.433594 17.660156 5.554688 17.660156 5.667969 17.609375 5.753906 17.527344 5.839844 17.441406 5.886719 17.324219 5.886719 17.207031 5.886719 17.089844 5.839844 16.972656 5.753906 16.886719 5.589844 16.71875 5.28125 16.722656 5.113281 16.886719zM17.433594 14.964844C17.347656 15.050781 17.296875 15.167969 17.296875 15.289062 17.296875 15.40625 17.347656 15.523438 17.433594 15.609375 17.515625 15.695312 17.632812 15.742188 17.753906 15.742188 17.875 15.742188 17.988281 15.695312 18.074219 15.609375 18.15625 15.523438 18.203125 15.40625 18.203125 15.289062 18.203125 15.164062 18.15625 15.050781 18.074219 14.964844 17.90625 14.796875 17.601562 14.796875 17.433594 14.964844zM17.339844 16.886719C17.257812 16.972656 17.207031 17.089844 17.207031 17.207031 17.207031 17.324219 17.257812 17.441406 17.339844 17.527344 17.425781 17.609375 17.542969 17.660156 17.660156 17.660156 17.777344 17.660156 17.894531 17.609375 17.980469 17.527344 18.066406 17.441406 18.113281 17.324219 18.113281 17.207031 18.113281 17.089844 18.066406 16.972656 17.980469 16.886719 17.8125 16.71875 17.511719 16.71875 17.339844 16.886719zM18.921875 17.285156C18.835938 17.371094 18.792969 17.484375 18.792969 17.605469 18.792969 17.71875 18.835938 17.835938 18.921875 17.921875 19.007812 18.007812 19.128906 18.054688 19.246094 18.054688 19.363281 18.054688 19.480469 18.007812 19.566406 17.921875 19.648438 17.835938 19.699219 17.722656 19.699219 17.605469 19.699219 17.484375 19.648438 17.371094 19.566406 17.285156 19.398438 17.117188 19.089844 17.117188 18.921875 17.285156zM18.921875 17.285156"/>
    <path d="M 19.699219 2.71875 L 15.621094 2.71875 L 15.621094 1.042969 C 15.621094 0.46875 15.15625 0 14.578125 0 L 9.421875 0 C 8.84375 0 8.378906 0.46875 8.378906 1.042969 L 8.378906 2.71875 L 4.300781 2.71875 C 3.054688 2.71875 2.039062 3.734375 2.039062 4.980469 L 2.039062 19.925781 C 2.039062 21.171875 3.054688 22.1875 4.300781 22.1875 L 5.660156 22.1875 L 5.660156 22.957031 C 5.660156 23.53125 6.128906 24 6.703125 24 L 17.296875 24 C 17.871094 24 18.339844 23.53125 18.339844 22.957031 L 18.339844 22.1875 L 19.699219 22.1875 C 20.945312 22.1875 21.960938 21.171875 21.960938 19.925781 L 21.960938 4.980469 C 21.960938 3.734375 20.945312 2.71875 19.699219 2.71875 Z M 9.28125 1.042969 C 9.28125 0.96875 9.34375 0.90625 9.421875 0.90625 L 14.578125 0.90625 C 14.65625 0.90625 14.71875 0.96875 14.71875 1.042969 L 14.71875 2.71875 L 9.28125 2.71875 Z M 17.433594 22.957031 C 17.433594 23.03125 17.371094 23.09375 17.296875 23.09375 L 6.703125 23.09375 C 6.628906 23.09375 6.566406 23.03125 6.566406 22.957031 L 6.566406 22.1875 L 17.433594 22.1875 Z M 21.054688 19.925781 C 21.054688 20.671875 20.445312 21.28125 19.699219 21.28125 L 4.300781 21.28125 C 3.554688 21.28125 2.945312 20.671875 2.945312 19.925781 L 2.945312 4.980469 C 2.945312 4.230469 3.554688 3.621094 4.300781 3.621094 L 19.699219 3.621094 C 20.445312 3.621094 21.054688 4.230469 21.054688 4.980469 Z M 21.054688 19.925781"/>
</svg>

<svg xmlns="http://www.w3.org/2000/svg" width="32" height="32" viewBox="0 0 24 24">
    <path d="M14.898 16.168a.447.447 0 0 0-.632.09.45.45 0 0 0 .09.633l.18.136c-.4.461-1.286 1.332-2.45 1.508-.746.113-1.496-.09-2.242-.594l.074-.054a.453.453 0 0 0 .09-.633.447.447 0 0 0-.633-.09l-.996.746a.447.447 0 0 0-.09.633c.086.117.223.18.36.18a.442.442 0 0 0 .273-.09l.164-.121c.84.636 1.707.96 2.59.96.18 0 .363-.015.547-.042 1.488-.223 2.574-1.309 3.039-1.86l.09.067a.453.453 0 0 0 .633-.09.45.45 0 0 0-.09-.633zm0 0M15.887 7.32a3.36 3.36 0 0 0-3.192 2.317 1.495 1.495 0 0 0-1.246 0A3.369 3.369 0 0 0 8.254 7.32a3.362 3.362 0 0 0-3.36 3.36 3.364 3.364 0 0 0 3.36 3.36 3.362 3.362 0 0 0 3.36-3.36c0-.13.195-.274.456-.274.262 0 .457.145.457.274a3.364 3.364 0 0 0 3.36 3.36 3.364 3.364 0 0 0 3.36-3.36 3.362 3.362 0 0 0-3.36-3.36zm-7.633 5.813A2.457 2.457 0 0 1 5.8 10.68a2.458 2.458 0 0 1 2.453-2.457 2.459 2.459 0 0 1 2.457 2.457 2.458 2.458 0 0 1-2.457 2.453zm7.633 0a2.455 2.455 0 0 1 0-4.91 2.458 2.458 0 0 1 2.453 2.457 2.457 2.457 0 0 1-2.453 2.453zm0 0"/>
    <path d="M8.793 9.094a.455.455 0 0 0-.64 0l-1.454 1.453a.455.455 0 0 0 .32.773c.118 0 .231-.043.32-.133l1.454-1.453a.455.455 0 0 0 0-.64zm0 0M9.414 10.36l-1.453 1.453a.455.455 0 0 0 .32.773.456.456 0 0 0 .32-.133L10.056 11a.448.448 0 0 0 0-.64.448.448 0 0 0-.64 0zm0 0M16.57 8.906a.448.448 0 0 0-.64 0l-1.453 1.453a.448.448 0 0 0 0 .641.456.456 0 0 0 .32.133.47.47 0 0 0 .32-.133l1.453-1.453a.455.455 0 0 0 0-.64zm0 0M16.754 10.36L15.3 11.812a.455.455 0 0 0 .32.773.456.456 0 0 0 .32-.133L17.395 11a.448.448 0 0 0 0-.64.448.448 0 0 0-.641 0zm0 0M6.93 15.348a.46.46 0 0 0 .453-.453.483.483 0 0 0-.133-.325.475.475 0 0 0-.645 0 .461.461 0 0 0-.128.325.448.448 0 0 0 .453.453zm0 0M6.703 16.492a.446.446 0 0 0 .317.77.457.457 0 0 0 .453-.45.459.459 0 0 0-.133-.32c-.172-.172-.48-.168-.637 0zm0 0M5.113 16.887a.473.473 0 0 0-.133.32c0 .117.051.234.133.32a.473.473 0 0 0 .32.133.456.456 0 0 0 .32-.773c-.163-.168-.472-.164-.64 0zm0 0M17.434 14.965a.462.462 0 0 0-.137.324.46.46 0 0 0 .457.453.45.45 0 0 0 .32-.133.47.47 0 0 0 0-.644.47.47 0 0 0-.64 0zm0 0M17.34 16.887a.473.473 0 0 0-.133.32c0 .117.05.234.133.32a.473.473 0 0 0 .32.133.456.456 0 0 0 .32-.773.47.47 0 0 0-.64 0zm0 0M18.922 17.285a.445.445 0 0 0-.129.32c0 .114.043.23.129.317a.456.456 0 0 0 .777-.316.466.466 0 0 0-.133-.32.475.475 0 0 0-.644 0zm0 0"/>
    <path d="M19.7 2.719H15.62V1.043C15.621.469 15.156 0 14.578 0H9.422c-.578 0-1.043.469-1.043 1.043v1.676H4.3A2.266 2.266 0 0 0 2.039 4.98v14.946a2.266 2.266 0 0 0 2.262 2.262h1.36v.769c0 .574.468 1.043 1.042 1.043h10.594c.574 0 1.043-.469 1.043-1.043v-.77h1.36a2.266 2.266 0 0 0 2.26-2.261V4.98A2.266 2.266 0 0 0 19.7 2.72zM9.28 1.043a.14.14 0 0 1 .14-.137h5.157a.14.14 0 0 1 .14.137v1.676H9.282zm8.153 21.914a.138.138 0 0 1-.137.137H6.703a.138.138 0 0 1-.137-.137v-.77h10.868zm3.62-3.031c0 .746-.609 1.355-1.355 1.355H4.301c-.746 0-1.356-.61-1.356-1.355V4.98c0-.75.61-1.359 1.356-1.359h15.398c.746 0 1.356.61 1.356 1.36zm0 0"/>
</svg>
